public/img/ico-discord.svg

<svg width="118" height="85" viewBox="0 0 118 85" xmlns="http://www.w3.org/2000/svg"><title>Shape</title><path d="M86.9 84.6s-3.6-4.3-6.6-8.1c13.1-3.7 18.1-11.9 18.1-11.9-4.1 2.7-8 4.6-11.5 5.9-5 2.1-9.8 3.5-14.5 4.3-9.6 1.8-18.4 1.3-25.9-.1-5.7-1.1-10.6-2.7-14.7-4.3-2.3-.9-4.8-2-7.3-3.4-.3-.2-.6-.3-.9-.5-.2-.1-.3-.2-.4-.3-1.8-1-2.8-1.7-2.8-1.7s4.8 8 17.5 11.8c-3 3.8-6.7 8.3-6.7 8.3C9.1 83.9.7 69.4.7 69.4c0-32.2 14.4-58.3 14.4-58.3C29.5.3 43.2.6 43.2.6l1 1.2C26.2 7 17.9 14.9 17.9 14.9s2.2-1.2 5.9-2.9C34.5 7.3 43 6 46.5 5.7c.6-.1 1.1-.2 1.7-.2 6.1-.8 13-1 20.2-.2 9.5 1.1 19.7 3.9 30.1 9.6 0 0-7.9-7.5-24.9-12.7L75 .6s13.7-.3 28.1 10.5c0 0 14.4 26.1 14.4 58.3 0 0-8.5 14.5-30.6 15.2zM40.4 37.9c-5.7 0-10.2 5-10.2 11.1s4.6 11.1 10.2 11.1c5.7 0 10.2-5 10.2-11.1.1-6.1-4.5-11.1-10.2-11.1zm36.5 0c-5.7 0-10.2 5-10.2 11.1s4.6 11.1 10.2 11.1c5.7 0 10.2-5 10.2-11.1s-4.5-11.1-10.2-11.1z" fill-rule="nonzero" fill="#7289DA"/></svg>

<?xml version="1.0" encoding="UTF-8"?>
<svg width="118px" height="85px" viewBox="0 0 118 85" version="1.1" xmlns="http://www.w3.org/2000/svg" xmlns:xlink="http://www.w3.org/1999/xlink">
    <!-- Generator: Sketch 47.1 (45422) - http://www.bohemiancoding.com/sketch -->
    <title>Shape</title>
    <desc>Created with Sketch.</desc>
    <defs></defs>
    <g id="Page-1" stroke="none" stroke-width="1" fill="none" fill-rule="evenodd">
        <g id="HOME-Copy-2" transform="translate(-799.000000, -680.000000)" fill-rule="nonzero" fill="#7289DA">
            <g id="Discord-Logo-Color" transform="translate(799.000000, 680.000000)">
                <path d="M86.9,84.6 C86.9,84.6 83.3,80.3 80.3,76.5 C93.4,72.8 98.4,64.6 98.4,64.6 C94.3,67.3 90.4,69.2 86.9,70.5 C81.9,72.6 77.1,74 72.4,74.8 C62.8,76.6 54,76.1 46.5,74.7 C40.8,73.6 35.9,72 31.8,70.4 C29.5,69.5 27,68.4 24.5,67 C24.2,66.8 23.9,66.7 23.6,66.5 C23.4,66.4 23.3,66.3 23.2,66.2 C21.4,65.2 20.4,64.5 20.4,64.5 C20.4,64.5 25.2,72.5 37.9,76.3 C34.9,80.1 31.2,84.6 31.2,84.6 C9.1,83.9 0.7,69.4 0.7,69.4 C0.7,37.2 15.1,11.1 15.1,11.1 C29.5,0.3 43.2,0.6 43.2,0.6 L44.2,1.8 C26.2,7 17.9,14.9 17.9,14.9 C17.9,14.9 20.1,13.7 23.8,12 C34.5,7.3 43,6 46.5,5.7 C47.1,5.6 47.6,5.5 48.2,5.5 C54.3,4.7 61.2,4.5 68.4,5.3 C77.9,6.4 88.1,9.2 98.5,14.9 C98.5,14.9 90.6,7.4 73.6,2.2 L75,0.6 C75,0.6 88.7,0.3 103.1,11.1 C103.1,11.1 117.5,37.2 117.5,69.4 C117.5,69.4 109,83.9 86.9,84.6 Z M40.4,37.9 C34.7,37.9 30.2,42.9 30.2,49 C30.2,55.1 34.8,60.1 40.4,60.1 C46.1,60.1 50.6,55.1 50.6,49 C50.7,42.9 46.1,37.9 40.4,37.9 Z M76.9,37.9 C71.2,37.9 66.7,42.9 66.7,49 C66.7,55.1 71.3,60.1 76.9,60.1 C82.6,60.1 87.1,55.1 87.1,49 C87.1,42.9 82.6,37.9 76.9,37.9 Z" id="Shape"></path>
            </g>
        </g>
    </g>
</svg>
